svgs/sharp-regular/filter-list.svg

<svg xmlns="http://www.w3.org/2000/svg" viewBox="0 0 512 512"><!--! Font Awesome Pro 6.6.0 by @fontawesome - https://fontawesome.com License - https://fontawesome.com/license (Commercial License) Copyright 2024 Fonticons, Inc. --><path d="M152 232l0-19.9-14.1-14.1L51.9 112l248.2 0-86.1 86.1L200 212.1l0 19.9 0 130.4-48-29.3L152 232zM0 64l0 48 0 16L104 232l0 128 96 58.7L248 448l0-56.3L248 232 352 128l0-16 0-48-48 0L48 64 0 64zm384 8l0 48 24 0 80 0 24 0 0-48-24 0-80 0-24 0zM344 232l-24 0 0 48 24 0 144 0 24 0 0-48-24 0-144 0zm0 160l-24 0 0 48 24 0 144 0 24 0 0-48-24 0-144 0z"/></svg>

<svg xmlns="http://www.w3.org/2000/svg" viewBox="0 0 512 512"><!--! Font Awesome Pro 6.4.2 by @fontawesome - https://fontawesome.com License - https://fontawesome.com/license (Commercial License) Copyright 2023 Fonticons, Inc. --><path d="M152 232V212.1l-14.1-14.1L51.9 112H300.1l-86.1 86.1L200 212.1V232 362.4l-48-29.3V232zM0 64v48 16L104 232V360l96 58.7L248 448V391.7 232L352 128V112 64H304 48 0zm384 8v48h24 80 24V72H488 408 384zM344 232H320v48h24H488h24V232H488 344zm0 160H320v48h24H488h24V392H488 344z"/></svg>
